images/social-telegram.svg

<svg width="48" height="40" viewBox="0 0 48 40" fill="none" xmlns="http://www.w3.org/2000/svg">
<path d="M31.4517 12.0993L15.5071 18.2478C14.419 18.6848 14.4253 19.2918 15.3075 19.5625L19.4011 20.8395L28.8725 14.8637C29.3203 14.5912 29.7295 14.7378 29.3932 15.0364L21.7195 21.9619H21.7177L21.7195 21.9628L21.4371 26.1823C21.8508 26.1823 22.0333 25.9925 22.2653 25.7686L24.2537 23.8351L28.3895 26.89C29.1522 27.31 29.6998 27.0941 29.8896 26.1841L32.6046 13.3889C32.8824 12.2746 32.1792 11.7701 31.4517 12.0993Z" fill="#83B3D3"/>
</svg>

<svg xmlns="http://www.w3.org/2000/svg" width="48" height="40" fill="none" viewBox="0 0 48 40"><path fill="#83b3d3" d="m31.452 12.1-15.945 6.148c-1.088.437-1.082 1.044-.2 1.314l4.094 1.277 9.471-5.975c.448-.273.858-.126.521.172l-7.674 6.926h-.001.002l-.283 4.22c.414 0 .596-.19.828-.413l1.989-1.934 4.136 3.055c.762.42 1.31.204 1.5-.706l2.715-12.795c.277-1.114-.426-1.619-1.153-1.29"/></svg>
